svg/aws-ses.svg

<?xml version="1.0" encoding="UTF-8"?>
<svg xmlns="http://www.w3.org/2000/svg" xmlns:xlink="http://www.w3.org/1999/xlink" width="32" height="32" viewBox="0 0 32 32">
<path fill-rule="nonzero" fill="rgb(86.666667%, 20.392157%, 29.803922%)" fill-opacity="1" d="M 0.203125 0.203125 L 31.796875 0.203125 L 31.796875 31.796875 L 0.203125 31.796875 Z M 0.203125 0.203125 "/>
<path fill-rule="nonzero" fill="rgb(100%, 100%, 100%)" fill-opacity="1" d="M 23.671875 25.476562 C 23.671875 24.746094 23.050781 24.125 22.320312 24.125 C 21.585938 24.125 20.964844 24.746094 20.964844 25.476562 C 20.964844 26.210938 21.585938 26.832031 22.320312 26.832031 C 23.050781 26.832031 23.671875 26.210938 23.671875 25.476562 M 16 25.027344 C 15.253906 25.035156 14.65625 25.636719 14.648438 26.382812 C 14.648438 27.113281 15.265625 27.734375 16 27.734375 C 16.742188 27.722656 17.339844 27.125 17.351562 26.382812 C 17.34375 25.636719 16.746094 25.035156 16 25.027344 M 9.679688 24.125 C 8.949219 24.125 8.328125 24.746094 8.328125 25.476562 C 8.328125 26.210938 8.949219 26.832031 9.679688 26.832031 C 10.414062 26.832031 11.035156 26.210938 11.035156 25.476562 C 11.035156 24.746094 10.414062 24.125 9.679688 24.125 M 10.855469 17.351562 L 21.144531 17.351562 L 17.6875 14.246094 L 16.292969 15.441406 C 16.210938 15.511719 16.109375 15.550781 16 15.546875 C 15.890625 15.550781 15.785156 15.511719 15.703125 15.441406 L 14.3125 14.246094 Z M 10.128906 10.660156 L 10.128906 16.792969 L 13.621094 13.652344 Z M 21.101562 10.128906 L 10.898438 10.128906 L 16 14.5 Z M 21.871094 16.792969 L 21.871094 10.660156 L 18.378906 13.652344 Z M 24.574219 25.476562 C 24.574219 26.703125 23.542969 27.734375 22.320312 27.734375 C 21.09375 27.734375 20.0625 26.703125 20.0625 25.476562 C 20.0625 24.410156 20.851562 23.484375 21.871094 23.269531 L 21.871094 21.871094 L 16.449219 21.871094 L 16.449219 24.175781 C 17.464844 24.390625 18.257812 25.3125 18.257812 26.382812 C 18.257812 27.605469 17.222656 28.636719 16 28.636719 C 14.777344 28.636719 13.742188 27.605469 13.742188 26.382812 C 13.742188 25.3125 14.535156 24.390625 15.550781 24.175781 L 15.550781 21.871094 L 10.128906 21.871094 L 10.128906 23.269531 C 11.148438 23.484375 11.9375 24.410156 11.9375 25.476562 C 11.9375 26.703125 10.90625 27.734375 9.679688 27.734375 C 8.457031 27.734375 7.425781 26.703125 7.425781 25.476562 C 7.425781 24.410156 8.214844 23.484375 9.230469 23.269531 L 9.230469 21.414062 C 9.230469 21.164062 9.429688 20.964844 9.679688 20.960938 L 15.550781 20.960938 L 15.550781 18.257812 L 9.679688 18.257812 C 9.558594 18.257812 9.445312 18.210938 9.359375 18.125 C 9.277344 18.039062 9.230469 17.925781 9.230469 17.804688 L 9.230469 9.679688 C 9.230469 9.429688 9.429688 9.226562 9.679688 9.226562 L 22.320312 9.226562 C 22.570312 9.226562 22.769531 9.429688 22.769531 9.679688 L 22.769531 17.804688 C 22.769531 18.054688 22.570312 18.257812 22.320312 18.257812 L 16.449219 18.257812 L 16.449219 20.964844 L 22.320312 20.964844 C 22.570312 20.964844 22.769531 21.167969 22.769531 21.414062 L 22.769531 23.269531 C 23.785156 23.484375 24.574219 24.410156 24.574219 25.476562 M 28.636719 16 C 28.636719 18.664062 27.816406 21.21875 26.257812 23.375 L 25.527344 22.851562 C 26.964844 20.855469 27.738281 18.460938 27.734375 16 C 27.734375 9.53125 22.472656 4.265625 16 4.265625 C 9.53125 4.265625 4.265625 9.53125 4.265625 16 C 4.265625 18.476562 5.03125 20.84375 6.472656 22.851562 L 5.742188 23.375 C 4.1875 21.230469 3.355469 18.648438 3.363281 16 C 3.363281 9.03125 9.03125 3.363281 16 3.363281 C 22.96875 3.363281 28.636719 9.03125 28.636719 16 "/>
</svg>

<svg role="img" viewBox="0 0 32 32" height="32" width="32" xmlns="http://www.w3.org/2000/svg"><path d="M.203.203h31.594v31.594H.203Zm0 0" fill="rgb(86.666667%, 20.392157%, 29.803922%)"/><path d="M23.672 25.477c0-.73-.621-1.352-1.352-1.352-.734 0-1.355.621-1.355 1.352 0 .734.62 1.355 1.355 1.355.73 0 1.352-.621 1.352-1.355M16 25.027a1.368 1.368 0 0 0-1.352 1.356c0 .73.618 1.351 1.352 1.351a1.373 1.373 0 0 0 1.352-1.351A1.368 1.368 0 0 0 16 25.027m-6.32-.902c-.73 0-1.352.621-1.352 1.352 0 .734.621 1.355 1.352 1.355.734 0 1.355-.621 1.355-1.355 0-.73-.62-1.352-1.355-1.352m1.175-6.773h10.29l-3.457-3.106-1.395 1.195a.423.423 0 0 1-.293.106.433.433 0 0 1-.297-.106l-1.39-1.195Zm-.726-6.692v6.133l3.492-3.14Zm10.973-.531H10.898L16 14.5Zm.77 6.664V10.66l-3.493 2.992Zm2.702 8.684c0 1.226-1.031 2.257-2.254 2.257-1.226 0-2.258-1.03-2.258-2.257 0-1.067.79-1.993 1.81-2.207v-1.4h-5.423v2.305c1.016.215 1.809 1.137 1.809 2.207 0 1.222-1.035 2.254-2.258 2.254s-2.258-1.032-2.258-2.254c0-1.07.793-1.992 1.809-2.207V21.87h-5.422v1.399c1.02.214 1.809 1.14 1.809 2.207 0 1.226-1.032 2.257-2.258 2.257-1.223 0-2.254-1.03-2.254-2.257 0-1.067.789-1.993 1.804-2.207v-1.856c0-.25.2-.45.45-.453h5.87v-2.703H9.68a.45.45 0 0 1-.45-.453V9.68c0-.25.2-.453.45-.453h12.64c.25 0 .45.203.45.453v8.125c0 .25-.2.453-.45.453h-5.87v2.707h5.87c.25 0 .45.203.45.45v1.855c1.015.214 1.804 1.14 1.804 2.207M28.637 16c0 2.664-.82 5.219-2.38 7.375l-.73-.523A11.688 11.688 0 0 0 27.734 16c0-6.469-5.261-11.734-11.734-11.734C9.531 4.266 4.266 9.53 4.266 16c0 2.477.765 4.844 2.207 6.852l-.73.523A12.5 12.5 0 0 1 3.362 16C3.363 9.031 9.031 3.363 16 3.363S28.637 9.031 28.637 16" fill="rgb(100%, 100%, 100%)"/></svg>
